!!!COM: Bach, Johann Sebastian
!!!OPR: Joh. Seb. Bachs vierstimmige Choralgesänge
!!!XEN: Four-part Chorales
!!!OTL: Chorale 81. Herr Jesu Christ, du höchstes Gut
!!!SCT: BWV 334
!!!SCA: Thematisch-systematisches Verzeichnis der musikalischen Werke Johann Sebastian Bach: Bach-Werke-Verzeichnis (Schmieder)
!!!YOR: Bach Gesellschaft Edition xxxix
!!!ENC: Steven Rasmussen
!!!CDT: 1685/3//-1750/7/28/
!!!OCY: Deutschland
!!!YEC: Copyright (c) 1994, 2000 Center for Computer Assisted Research in the Humanities
!!!YEM: Rights to all derivative editions reserved
!!!YEN: United States of America
**kern	**silbe	**kern	**kern	**kern	**silbe
*I:[BASSO]	*I:[BASSO]	*I:[TENORE]	*I:[ALTO]	*I:[SOPRANO]	*I:[SOPRANO]
*>[A,A,B]	*	*>[A,A,B]	*>[A,A,B]	*>[A,A,B]	*
*>A	*	*>A	*>A	*>A	*
*clefF4	*	*clefGv2	*clefG2	*clefG2	*
*k[b-e-]	*	*k[b-e-]	*k[b-e-]	*k[b-e-]	*
*g:	*	*g:	*g:	*g:	*
*M4/4	*	*M4/4	*M4/4	*M4/4	*
4G	.	4B-	4d	4g	Herrsieh'
=1	=1	=1	=1	=1	=1
4C	.	4A	4e-	4g	Je-doch,
4D	.	4A	8dL	4f#	-suwie
.	.	.	8cJ	.	.
4E-	.	4G	4B-	4g	Christ,ich
8DL	.	4c	4e-	4a	duin
8CJ	.	.	.	.	.
=2	=2	=2	=2	=2	=2
4D	.	(8F#	4d	4b-	hÃ¶ch-mei-
.	.	4G)	.	.	.
4D	.	.	4d	4a	-stes-nem
.	.	8F#	.	.	.
4GG;	.	4B-;	4d;	4g;	Gut,Mut
4G	.	4B-	4d	4g	dumit
=3	=3	=3	=3	=3	=3
4G	.	4c	4e-	4a	Brunn-Schmer-
4F#	.	4c	4d	4a	-quell-zen
4Fn	.	4Bn	4d	4dd	al-bin
4E-	.	4c	8gL	4cc	-lerbe-
.	.	.	8f#J	.	.
=4	=4	=4	=4	=4	=4
4D	.	4d	2g	2b-	Gna--la-
4C#	.	8enL	.	.	.
.	.	8GJ	.	.	.
4D;	.	4d;	4f#;	4a;	-den,-den,
=:|!	=:|!	=:|!	=:|!	=:|!	=:|!
*>B	*	*>B	*>B	*>B	*
4B-	.	4d	4g	4dd	und
=5	=5	=5	=5	=5	=5
8B-L	.	8e-L	8gL	4cc	in
8AJ	.	8fJ	8fJ	.	.
4G	.	8gL	8fL	4b-	mir
.	.	8B-J	8e-J	.	.
8GL	.	8cL	8e-L	8aL	hab'
8FJ	.	8dJ	8dJ	8b-J	.
4E-	.	8GL	8cL	4cc	der
.	.	8cJ	8aJ	.	.
=6	=6	=6	=6	=6	=6
8DL	.	8dL	(8f#	4b-	Pfei-
8CJ	.	8e-J	4g)	.	.
4D	.	8AL	.	4a	-le
.	.	8dJ	8f#	.	.
4GG;	.	4B-;	4d;	4g;	viel,
4G	.	4d	8gL	4b-	die
.	.	.	8fnJ	.	.
=7	=7	=7	=7	=7	=7
8GL	.	8c#L	8enL	4a	im
8FJ	.	8dJ	8dJ	.	.
4En	Ge-	4en	8dL	4g	Ge-
.	.	.	8c#J	.	.
[2D	-wis-	4.A	8dL	8fL	-wis-
.	.	.	8eJ	8enJ	.
.	.	.	8fL	8dL	-sen
.	.	8G	8c#J	8eJ	.
=8	=8	=8	=8	=8	=8
8D]	.	8AL	(8d	4f	oh-
8AA	-sen	8cJ	4f)	.	.
8BB-	oh-	8dL	.	4g	-ne
8C	-ne	8cJ	8en	.	.
4FF;	Ziel	4c;	4f;	4a;	Ziel
8FL	.	4c	4f	4a	mich
8E-J	.	.	.	.	.
=9	=9	=9	=9	=9	=9
8DL	.	4d	8fL	4b-	ar-
8E-J	.	.	8gJ	.	.
8DL	.	4e-	4a	4cc	-men
8CJ	.	.	.	.	.
8BB-L	.	4f	4a	4.dd	Sün-
8C	.	.	.	.	.
8BB-	.	4f#	[4d	.	.
8AAJ	.	.	.	8cc	.
=10	=10	=10	=10	=10	=10
8GGL	.	4g	4d]	4b-	.
8BB-J	.	.	.	.	.
8E-L	.	4G	8cL	8ccL	-der
8DJ	.	.	8dJ	8b-J	.
8CL	.	4G	4e-	2a	drü-
8AAJ	.	.	.	.	.
4D	.	4F#	8dL	.	.
.	.	.	8cJ	.	.
=11	=11	=11	=11	=11	=11
2.GG;	.	2.D;	2.Bn;	2.g;	-cken.
==|!	==|!	==|!	==|!	==|!	==|!
*-	*-	*-	*-	*-	*-
!!!RWG: Key is interpreted using the Humdrum key tool.
!!!URL-pdf: https://s9.imslp.org/files/imglnks/usimg/7/7a/IMSLP04155-Bach_-_BGA_253-438.pdf#page=44 	Bach-Gesellschaft Ausgabe, Band 39 (pp.175-276) Leipzig: Breitkopf und Härtel, 1892. Plate B.W. XXXIX.
!!!END: 1994/07/07
!!!EMD: Converted from MuseData to Humdrum Dec 19, 2000, by Andreas Kornstaedt using muse2kern.
!!!EED: Craig Stuart Sapp
!!!EEV: 2024/03/31
!!!filter-keyboard: satb2gs
!!!title: @{OTL} (@{SCT})
